X:11
T:O Grada's No.1
T:Not for Joe
T:Mrs Crowley's
C:Traditional
S:Conal O Grada (flute)
N:Play last 16 bars
N:then 3 times through
N:The Corofin Plain Set, Figure 6, Tune 1 of 2
Z:Gordon Turnbull, Edinburgh
Z:gturnbull@theflow.org.uk
Z:http://www.theflow.org.uk
R:Polka
L:1/8
M:2/4
K:G
DG EG/E/ | DG EG/E/ | DG AG/A/ | BA A2 |\
DG EG | DG EG | DG AG/A/ | BG G2 :||
dB g>B | dB gB/c/ | dB g>B | aA AB/c/ |\
dB g>B | dB g>B | GB AG/A/ | BG G2 :||
